X: 17
T: 14th February or Valentine's Day TS.074
T: Valentine's Day TS.074
O: Lincolnshire
R: reel
F: http://richardrobinson.tunebook.org.uk/tune/11053
L: 1/8
M: 2/4
Q: 1/2=60
S: Thomas Sands' MS,1810,Lincolnshire
Z: vmp.Ruairidh Greig, 2011
%%TBL: {"version":"beta","type":"tune","id":"11053"}
K: A
e/d/ |:\
cfBe | A>B ce | fdBA | G/A/B/G/ HE e/d/ |\
cfBe | A>Bcd | fdBG | A2A2 :|
|:\
Aa/a/ aa | aggg | f/g/a/g/ b/a/g/f/ | fe ee |\
d>e f/e/f/e/ | c>d e/c/e/c/ | fdBG | A2A2 :|
